X:1
T:His Love for Me
T:His Love for Me
T:Fred H. Byshe
T:F. M. Eastwood, 1908
T:Public Domain Courtesy of the Cyber Hymnal™
T:Public Domain Courtesy of the Cyber Hymnal™
C:Fred H. Byshe
Z:Public Domain
Z:Courtesy of the Cyber Hymnal™
%%score ( 1 2 ) ( 3 4 )
L:1/8
Q:1/4=85
M:4/4
K:Bb
V:1 treble 
V:2 treble 
V:3 bass 
V:4 bass 
V:1
 FF | B2 [DFB][DFA] [DFA] G2 [DFG][B,D][B,DF] | %2
w: 1.~You have|heard of the sto- ry of Je- sus—|
w: 2.~You have|heard how He blessed lit- tle child- ren:|
w: 3.~You have|heard how the blind, as they sought Him,|
w: 4.~You have|heard how He spake to the tem- pest—|
 F4 ([A,CF][^G,=B,F][G,B,F]) ([A,CF][A,CF])[A,C][G,D] | E2 [A,E][A,EG] [A,EG] d2 [EAd][EAc][EFA] | %4
w: * Of * * His * grace flow-|* ing bound- less and free, But there’s|
w: * “Come, * * all * ye that|* are wea- ry,” said He; So I|
w: * Found * * their * sight when|* He bade them to see; So my|
w: * How * * the * words, “Peace,|* be still!” calmed the sea; So my|
 z [^C=E][CE][CE] [DF]2 [DF][=CF] | ^F2 [CDF][CDF] [CDF] G2 [B,DG][B,DA][B,DB] | %6
w: * * * * no one|* can tell you the full- ness Of|
w: * * * * came, and|* He gave me the bless- ing Of|
w: * * * * sin- blind-|* ed eyes have been o- pened By|
w: * * * * soul found|* the peace that it longed for In|
 z [EA][EA][EA] c2 ([EAc][EFG])[EFA] | [D=EB] [CEA]2 [CEG] [DEB] [CEA]2 [CEG] | %8
w: * * * His won- * der-|* ful love for me. *|
w: * * * His won- * der-|* ful love for me. His|
w: * * * His won- * der-|* ful love for me. *|
w: * * * His won- * der-|* ful love for me. *|
 (z [E_GA][EGA][EGA] !fermata![EFAc]) ||[M:3/4]"^Refrain" [DBd][DAd]>[DGd] | %10
w: ||
w: |* love for|
w: ||
w: ||
 [Dd]3 [DFd] [DGd]>[DBd] | [EAe]3 [EAe] [Ece]>[EAe] | [EGe]3 [DGd] [DBd]>[^CG^c] | %13
w: |||
w: me, His love for|me! High as the|heav’n, deep as the|
w: |||
w: |||
 [DFd]3 [DBd] [DAd]>[DGd] | [Dd]3 [Fdf]/[Fdf]/ [^Fd^f]>[Fcf] | [GBg]3 [GBg] [GAg]>[GBg] | %16
w: |||
w: sea; Love that will|last thro’ e- ter- ni-|ty, His love for|
w: |||
w: |||
 !fermata![FBf]3 [Fe] [Fd]>[Fc] | !fermata![FB]3 |] %18
w: ||
w: me, His love for|me!|
w: ||
w: ||
V:2
 x2 | [DF] x [DF] x7 | [A,CF] x10 | [A,E] x [EA] x7 | G4 x4 | [CD] x [B,D] x7 | c4 [EA] x4 | x8 | %8
 c4- x ||[M:3/4] x3 | x6 | x6 | x6 | x6 | x6 | x6 | x6 | x3 |] %18
V:3
 z2 | [B,,F,]4 [B,,B,]2 [B,,F,]2 x2 | F,4 F,4 x3 | F,4 [F,,F,]4 x2 | %4
 z ([B,,B,][B,,B,][B,,B,] [B,,B,]2) [B,,B,][_E,A,] | [D,A,]4 [G,,G,]4 x2 | z F,F,F, z F,F,F, x | %7
 [C,,C,]2 [=E,G,B,]2 [C,,C,]2 [E,G,B,]2 | z ([_G,,_G,][G,,G,][G,,G,] !fermata![F,,F,]) || %9
[M:3/4] [B,,F,][B,,F,]>[B,,F,] | [B,,F,]3 [B,,F,] [B,,F,]>[B,,F,] | [C,F,]3 F, [F,A,]>[F,C] | %12
 [F,A,]3 [B,,B,] [B,,F,]>[B,,=E,] | [B,,F,]3 [B,,F,] [B,,F,]>[B,,F,] | %14
 [B,,F,]3 [B,,B,]/[B,,B,]/ [D,A,]>[D,D] | [G,D]3 [=E,^C] [E,C]>[E,C] | %16
 !fermata![F,D]3 [F,A,] [F,B,]>[F,E] | !fermata![B,,B,D]3 |] %18
V:4
 x2 | x10 | (F,,A,,=B,,D,) (C,F,)F,B,, x3 | C,2 F,,2 x6 | x8 | x10 | F,,4 F,,4 x | x8 | x5 || %9
[M:3/4] x3 | x6 | x3 F, x2 | x6 | x6 | x6 | x6 | x6 | x3 |] %18

